X: 42168
T: Waterbed, The
R: reel
M: 4/4
K: Adorian
|EAAE Bc AG|EGDG EDEG|AEGA cA ~A2|cdec dcAG|
EAAE Bc AG|EGDG E2 B/c/d|ecdc AEGA|cAGA EA ~A2:|
|:~e2 dege ~e2|B/c/deg dc A2|~e2 dega ~a2|gedc AEGA|
~e2 dege ~e2|B/c/deg dega|gaeg dEGA|cAGA EA ~A2:|

